src/images/www-logo.svg

<svg width="46" height="47" viewBox="0 0 46 47" fill="none" xmlns="http://www.w3.org/2000/svg">
<path fill-rule="evenodd" clip-rule="evenodd" d="M23.0001 4.72266C12.5088 4.72266 3.99414 13.2373 3.99414 23.7286C3.99414 34.2199 12.5088 42.7346 23.0001 42.7346C33.4724 42.7346 42.0061 34.2199 42.0061 23.7286C42.0061 13.2373 33.4724 4.72266 23.0001 4.72266ZM35.5536 13.4844C37.8926 16.334 39.1869 19.8977 39.2217 23.5842C38.6877 23.4816 33.328 22.3887 27.9265 23.0691C27.8029 22.8012 27.6984 22.5123 27.5768 22.2234C27.2405 21.4309 26.883 20.6476 26.5048 19.8742C32.4822 17.4415 35.2039 13.9368 35.5536 13.4844ZM23.0001 7.52604C27.1244 7.52604 30.8952 9.07123 33.7613 11.6085C33.4724 12.0191 31.0188 15.2976 25.2466 17.4624C22.5877 12.5778 19.6399 8.57707 19.1856 7.95938C20.436 7.66709 21.7161 7.52167 23.0001 7.52604ZM16.0953 9.05222C18.2704 12.0672 20.2797 15.1983 22.1144 18.4317C14.5273 20.452 7.82765 20.4083 7.10732 20.4083C7.62966 17.9511 8.71258 15.6477 10.2716 13.6779C11.8307 11.7081 13.8237 10.125 16.0953 9.05222ZM6.75571 23.7477V23.2535C7.45893 23.2725 15.3312 23.377 23.4335 20.9443C23.9086 21.8509 24.3401 22.7783 24.7525 23.7058C24.5453 23.7686 24.3191 23.8294 24.1139 23.8921C15.7436 26.5909 11.2905 33.971 10.9199 34.5906C8.23977 31.6151 6.75502 27.7522 6.75571 23.7477ZM23.0001 39.9731C19.3917 39.9792 15.8856 38.7746 13.0429 36.552C13.3318 35.9533 16.6312 29.6034 25.7826 26.4085C25.8244 26.3895 25.8453 26.3895 25.8852 26.3667C27.4291 30.3492 28.5893 34.47 29.35 38.6731C27.3446 39.536 25.1834 39.9785 23.0001 39.9731ZM32.0489 37.1887C31.8854 36.2004 31.0188 31.4584 28.8958 25.6254C33.9875 24.8215 38.4406 26.1405 38.9956 26.3268C38.6489 28.5183 37.8529 30.6145 36.6575 32.4838C35.462 34.353 33.893 35.9548 32.0489 37.1887Z" fill="white"/>
</svg>

<?xml version="1.0" encoding="UTF-8"?>
<svg fill="none" viewBox="0 0 46 47" xmlns="http://www.w3.org/2000/svg">
<path d="m23 4.7227c-10.491 0-19.006 8.5146-19.006 19.006s8.5147 19.006 19.006 19.006c10.472 0 19.006-8.5147 19.006-19.006s-8.5337-19.006-19.006-19.006zm12.554 8.7617c2.339 2.8496 3.6333 6.4133 3.6681 10.1-0.534-0.1026-5.8937-1.1955-11.295-0.5151-0.1236-0.2679-0.2281-0.5568-0.3497-0.8457-0.3363-0.7925-0.6938-1.5758-1.072-2.3492 5.9774-2.4327 8.6991-5.9374 9.0488-6.3898zm-12.554-5.9584c4.1243 0 7.8951 1.5452 10.761 4.0825-0.2889 0.4106-2.7425 3.6891-8.5147 5.8539-2.6589-4.8846-5.6067-8.8853-6.061-9.503 1.2504-0.29229 2.5305-0.43771 3.8145-0.43334zm-6.9048 1.5262c2.1751 3.015 4.1844 6.1461 6.0192 9.3795-7.5872 2.0203-14.287 1.9766-15.007 1.9766 0.52234-2.4572 1.6053-4.7606 3.1643-6.7304 1.5591-1.9698 3.5521-3.5529 5.8237-4.6257zm-9.3396 14.695v-0.4942c0.70322 0.019 8.5755 0.1235 16.678-2.3092 0.4751 0.9066 0.9065 1.834 1.319 2.7615-0.2072 0.0628-0.4334 0.1236-0.6386 0.1863-8.3703 2.6988-12.823 10.079-13.194 10.698-2.6801-2.9755-4.1649-6.8384-4.1642-10.843zm16.244 16.225c-3.6084 0.0061-7.1145-1.1985-9.9572-3.4211 0.2889-0.5987 3.5883-6.9486 12.74-10.144 0.0418-0.019 0.0627-0.019 0.1026-0.0418 1.5439 3.9825 2.7041 8.1033 3.4648 12.306-2.0054 0.8629-4.1666 1.3054-6.3499 1.3zm9.0488-2.7844c-0.1635-0.9883-1.0301-5.7303-3.1531-11.563 5.0917-0.8039 9.5448 0.5151 10.1 0.7014-0.3467 2.1915-1.1427 4.2877-2.3381 6.157-1.1955 1.8692-2.7645 3.471-4.6086 4.7049z" clip-rule="evenodd" fill="#fff" fill-rule="evenodd"/>
</svg>
